X:1
T:Celluy a qui
T:Celluy a qui
T:Nicolas Gombert
C:Nicolas Gombert
%%score [ 1 [ 2 3 ] 4 ]
L:1/8
Q:1/4=76
M:2/2
K:F
V:1 treble nm="Superius" snm="S"
V:2 treble-8 nm="Tenor 1" snm="T 1"
V:3 treble-8 nm="Tenor 2" snm="T 2"
V:4 bass nm="Bassus" snm="B"
V:1
 G4 B2 c2 | d6 d2 | c2 f2 e2 d2- | dc B2 A3 f | e2 d3 c B2 | AB cA B4 | z4 G4 | FG AB c2 B2 | %8
w: Cel- luy à|qui mon|cueur fust des- par-|* * * ty, fust|des- par- * *|* * * * ty|seul-|let _ _ _ _ te|
 A2 G2 G2 F2 | G3 A BG A2 | B2 A4 G2 | A4 z4 | z4 G4 | G2 F2 G2 A2 | B4 A4- | A2 G2 A4 | %16
w: m'a lais- sé sans|par- * * * *|* * ti-|e,|en|tel re- gretz, en|tel _|_ re- gretz,|
 F2 d2 c2 B2 | A2 d4 c2 | d4 z4 | z2 G2 F3 E | D4 z4 | z2 G2 B2 B2 | A2 A2 c2 c2 | B2 c2 d2 cB | %24
w: en tel _ _|_ _ re-|gretz,|en tel re-|gretz|que pour cho-|se, que pour cho-|se que j'ay- * *|
 A2 G2 B2 AG | F4 z2 A2 | c2 d2 A2 d2 | d3 c B2 A2 | G4 z4 | z2 c2 c2 B2 | AB cd e2 d2- | %31
w: |e, il|n'est en moy sca-|voir re- cou- *|vrer,|sca- voir re-|cou- * * * vrer joy-|
 d2 c2 d4 | z4 z2 d2 | d2 c2 B2 c2- | cB B4 A2 | B2 B2 d2 c2 | B4 z2 A2 | c2 B2 A4 | z2 G2 B2 A2 | %39
w: * * e,|re-|cou- vrer joy- *||e sai- chant de|vray, sai-|chant de vray,|sai- chant de|
 G2 G2 G2 F2 | GF FE/D/ E4 | D2 G2 B2 A2- | AG G4 F2 | G2 B2 d2 c2 | B4 z2 A2 | c2 B2 A4 | %46
w: vray que de moy|c'est _ _ _ _ par-|||ty, sai- chant de|vray, sai-|chant de vray,|
 z2 G2 B2 A2 | B2 AG B2 A2 | D2 d2 d2 c2 | dc BA B2 A2- |"^#" AG G4 F2 | G8 |] %52
w: sai- chant de|vray, _ _ _ que|de moy c'est _|_ _ _ _ _ _|* * * par-|ty.|
V:2
 z8 | z2 d2 f2 g2 | a2 a2 g2 b2- | ba g4 f2 | g2 a4 gf | e4 g4 | f2 e2 d2 c2 | d4 z2 g2 | %8
w: |Cel- luy à|qui mon cueur fust|_ _ des- par-|ty, fust _ _|_ des-|* * * par-|ty, mon|
"^b" f2 e2 d2 d2 | B4 z4 | z4 z2 d2 | d2 c2 d2 e2 | f4 e3 d | cB A2 G2 d2- | d2 cB c3 B | %15
w: cueur fust des- par-|ty|seul-|let- te m'a lais-|sé sans _|_ _ par- ti- *|* * * e, en|
 c2 d4 c2 | d4 z4 | z4 z2 c2 | B2 A2 G2 _e2- | e d2 c d2 d2 | f2 f2 e2 f2 | g2 fe d2 d2 | %22
w: tel _ re-|gretz,|en|tel re- gretz, en|_ tel re- gretz que|pour cho- se que|j'ay- * * e, que|
 f2 f2 e2 f2 | g2 fe d3 e | f2 d4 c2 | d4 z4 | z2 d2 f4 | g4 d4 | z2 g2 g2 f2 | %29
w: pour cho- se que|j'ay- * * * *||e,|il n'est|en moy|sca- voir re-|
"^b""^b" e2 dc e2 d2 | c4 z2 a2 | a2 a2 f3 e | d2 e2 f2 g2- | ge f2 g2 a2 | g4 f3 e | %35
w: cou- * * vrer joy-|e, sca-|voir re- cou- *|* vrer joy- *|||
 d2 g2 f g2 f | g3 f e2 f2- | fd e2 f4 | d4 z2 d2 | d2 c2 d4 | B4 A4 | B3 c de f2 | e2 c2 d4 | %43
w: e sai- chant _ de|vray, _ _ sai-|* * chant de|vray, que|de moy c'est|par- *|||
 B2 g2 f g2 f | g3 f e2 f2- | fd e2 f4 | d8 | z2 g2 g2 f2 | gf ed e4 | d4 z2 d2 | d2 c2 d2 d2 | %51
w: ty, sai- chant _ de|vray, _ _ sai-|* * chant de|vray|que de moy|c'est _ _ _ par-|ty, que|de moy c'est par-|
 B8 |] %52
w: ty.|
V:3
 z8 | z8 | z4 z2 G2 | B3 c d2 d2 | c2 f3 e d2- | d2 c2 d4 | c2 B4 AG | A2 f2 e2 d2- | dc B2 A4 | %9
w: ||Cel-|luy à qui mon|cueur- fust _ _|_ des- *|* * par- *|ty, mon cueur fust|_ des- par- *|
 G4 z2 d2 | d2 c2 d3 e | fe/d/ ef B2 c2 | c2 B2 c3 d | e2 d3 c f2- | f2 e2 f4 | e2 d2 e4 | %16
w: ty seul-|let- te m'a _|lais- * * * * sé, seul-|let- te m"a _|_ lais- * *|* * sé|sans par- *|
 de fd e2 f2 | e2 d2 e4 | z4 z2 B2 | A2 G2 B2 B2 | A2 B2 c2 BA | G4 z2 B2 | d2 d2 c4 | z4 G4 | %24
w: ti- * * * e, en|tel re- gretz,|re-|gretz que pour cho-|se que j'ay- * *|e, que|pour cho- se|que|
 c2 B2 G4 | A2 A2 c2 d2 | A2 d2 dc BA | B3 A G2 A2 | B2 c3 A B2 | c2 g2 g2 f2 | e2 a2 g2 f2 | %31
w: j'ay- * *|e, il n'est en|moy sca- voir _ _ _|_ _ _ re-|cou- vrer joy- *|e, re- cou- vrer|joy- * * *|
 e4 z2 d2 | f2 g2 d2 B2 | B2 c2 d2 f2 |"^b" e2 d2 c4 | B4 z2 c2 | e2 d2 c4 | z2 B2 d2 c2 | %38
w: e, il|n'est en moy sca-|voir re- cou- vrer|joy- * *|e sai-|chant de vray,|sai- chant de|
 B2 B2 G2 A2 | B2 G2 A4 | z2 d2 d2 c2 | dc BA G2 A2 | B2 G2 A4 | G4 z2 c2 | e2 d2 c4 | %45
w: vray que de moy|c'est par- ty,|que de moy|c'est _ _ _ par- *||ty, sai-|chant de vray,|
 z2 B2 d2 c2 | B4 z2 d2 | d2 c2 d4 | B4 A4 | B4 B2 A2 | B2 G2 A4 | G8 |] %52
w: sai- chant de|vray que|de moy c'est|par- *|ty, que de|moy c'est- par-|ty.|
V:4
 z8 | z8 | z8 | z8 | z2 D,2 F,2 G,2 | A,2 A,2 G,2 B,2 | A,2 G,3 F, E,2 | D,E, F,G, A,2 B,2 | %8
w: ||||Cel- luy à|qui mon cueur fust|des- par- * *||
 F,2 G,2 D,4 | z2 G,2 G,2 F,2 | G,2 A,2 B,4 | A,4 G,2 E,2 | D,4 C,4- | C,2 D,2 E,2 D,2 | %14
w: * * ty-|seul- let- te|m'a lais- *|* sé, seul-|let- te|_ m'a lais- *|
 G,4 F,3 G, | A,2 B,2 A,4 | D,4 z2 D2 | C2 B,2 A,3 A, |"^b" G,2 F,2 E,2 G,2 | %19
w: * sé; en|tel _ re-|gretz, en|tel re- gretz, en|tel re- gretz, en|
"^b" F,2 E,2 D,2 B,,2 | D,2 D,2 C,2 D,2 | E,2 C,2 G,3 F, | D,2 F,2 A,2 A,2 | G,2 A,2 B,2 A,G, | %24
w: tel re- gretz que|pour co- se que|j'ay _ _ _|e, que pour cho-|se que j'ay- * *|
"^b" F,2 G,2 E,4 | D,4 z4 | z8 | G,4 G,2 F,2 |"^b""^b" E,2 D,C, E,2 D,2 | C,4 z4 | A,4 C2 D2 | %31
w: |e,||sca- voir re-|cou- * * vrer joy-|e,|il n'est en|
 A,4 z2 D2 | D2 C2 B,2 A,G, | B,2 A,2 G,2 F,2 | G,2 B,2 F,4 | G,4 B,2 A,2 | G,4 z2 F,2 | %37
w: moy sca-|voir re- cou- * *|* vrer joy- *|* * e,|sai- chant de|vray, sai-|
 A,2 G,2 F,4 | G,4 G,2 F,2 | G,2 E,2 D,4 | z8 | G,4 G,2 F,2 |"^b" G,2 E,2 D,4 | G,4 B,2 A,2 | %44
w: chant de vray|que de moy|cest par- ty,||que de moy|c'est par- ty,|sai- chant de|
 G,4 z2 F,2 | A,2 G,2 F,4 | G,4 G,2 F,2 | G,2 E,2 D,4 | z8 | G,4 G,2 F,2 | G,2 E,2 D,4 | G,8 |] %52
w: vray, sai-|chant de vray|que de moy|c'est par- ty,||que de moy|c'est _ par-|ty.|

